icons/webassembly/webassembly-original.svg

<svg width="128" height="128" viewBox="0 0 128 128" fill="none" xmlns="http://www.w3.org/2000/svg">
<path d="M78.6406 0C78.6406 0.226562 78.6406 0.453125 78.6406 0.691406C78.6406 8.79687 72.0703 15.3672 63.9648 15.3672C55.8594 15.3672 49.2891 8.79297 49.2891 0.691406C49.2891 0.453125 49.2891 0.226562 49.2891 0H0V128H128V0H78.6406Z" fill="#654FF0"/>
<path d="M29.7344 68.9805H38.2148L44.0078 99.8242H44.1133L51.0742 68.9805H59.0078L65.293 100.203H65.418L72.0195 68.9805H80.3398L69.5273 114.301H61.1094L54.875 83.457H54.7109L48.0391 114.301H39.4609L29.7344 68.9805ZM89.9023 68.9805H103.277L116.559 114.301H107.805L104.918 104.215H89.6836L87.4531 114.301H78.9297L89.9023 68.9805ZM94.9922 80.1523L91.293 96.7773H102.809L98.5625 80.1523H94.9922Z" fill="white"/>
</svg>

<svg width="128" height="128" viewBox="0 0 128 128" fill="none" xmlns="http://www.w3.org/2000/svg"><path d="M78.64 0v.691c0 8.106-6.57 14.676-14.675 14.676-8.106 0-14.676-6.574-14.676-14.676V0H0v128h128V0H78.64z" fill="#654FF0"/><path d="M29.734 68.98h8.48l5.794 30.844h.105l6.961-30.843h7.934l6.285 31.222h.125l6.601-31.222h8.32L69.528 114.3H61.11l-6.234-30.844h-.164l-6.672 30.844h-8.578l-9.727-45.32zm60.168 0h13.375l13.282 45.321h-8.754l-2.887-10.086H89.684l-2.23 10.086H78.93l10.972-45.32zm5.09 11.172-3.699 16.625h11.516l-4.246-16.625h-3.57z" fill="#fff"/></svg>
